V6_wwwroot/ptn/core/icons/fa6/svgs/solid/ship.svg

<svg xmlns="http://www.w3.org/2000/svg" viewBox="0 0 576 512"><!--! Font Awesome Free 6.4.2 by @fontawesome - https://fontawesome.com License - https://fontawesome.com/license/free (Icons: CC BY 4.0, Fonts: SIL OFL 1.1, Code: MIT License) Copyright 2023 Fonticons, Inc. --><path d="M192 32c0-17.7 14.3-32 32-32H352c17.7 0 32 14.3 32 32V64h48c26.5 0 48 21.5 48 48V240l44.4 14.8c23.1 7.7 29.5 37.5 11.5 53.9l-101 92.6c-16.2 9.4-34.7 15.1-50.9 15.1c-19.6 0-40.8-7.7-59.2-20.3c-22.1-15.5-51.6-15.5-73.7 0c-17.1 11.8-38 20.3-59.2 20.3c-16.2 0-34.7-5.7-50.9-15.1l-101-92.6c-18-16.5-11.6-46.2 11.5-53.9L96 240V112c0-26.5 21.5-48 48-48h48V32zM160 218.7l107.8-35.9c13.1-4.4 27.3-4.4 40.5 0L416 218.7V128H160v90.7zM306.5 421.9C329 437.4 356.5 448 384 448c26.9 0 55.4-10.8 77.4-26.1l0 0c11.9-8.5 28.1-7.8 39.2 1.7c14.4 11.9 32.5 21 50.6 25.2c17.2 4 27.9 21.2 23.9 38.4s-21.2 27.9-38.4 23.9c-24.5-5.7-44.9-16.5-58.2-25C449.5 501.7 417 512 384 512c-31.9 0-60.6-9.9-80.4-18.9c-5.8-2.7-11.1-5.3-15.6-7.7c-4.5 2.4-9.7 5.1-15.6 7.7c-19.8 9-48.5 18.9-80.4 18.9c-33 0-65.5-10.3-94.5-25.8c-13.4 8.4-33.7 19.3-58.2 25c-17.2 4-34.4-6.7-38.4-23.9s6.7-34.4 23.9-38.4c18.1-4.2 36.2-13.3 50.6-25.2c11.1-9.4 27.3-10.1 39.2-1.7l0 0C136.7 437.2 165.1 448 192 448c27.5 0 55-10.6 77.5-26.1c11.1-7.9 25.9-7.9 37 0z"/></svg>

<svg xmlns="http://www.w3.org/2000/svg" viewBox="0 0 576 512"><!--! Font Awesome Free 6.1.1 by @fontawesome - https://fontawesome.com License - https://fontawesome.com/license/free (Icons: CC BY 4.0, Fonts: SIL OFL 1.1, Code: MIT License) Copyright 2022 Fonticons, Inc. --><path d="M192 32C192 14.33 206.3 0 224 0H352C369.7 0 384 14.33 384 32V64H432C458.5 64 480 85.49 480 112V240L524.4 254.8C547.6 262.5 553.9 292.3 535.9 308.7L434.9 401.4C418.7 410.7 400.2 416.5 384 416.5C364.4 416.5 343.2 408.8 324.8 396.1C302.8 380.6 273.3 380.6 251.2 396.1C234 407.9 213.2 416.5 192 416.5C175.8 416.5 157.3 410.7 141.1 401.3L40.09 308.7C22.1 292.3 28.45 262.5 51.59 254.8L96 239.1V111.1C96 85.49 117.5 63.1 144 63.1H192V32zM160 218.7L267.8 182.7C280.9 178.4 295.1 178.4 308.2 182.7L416 218.7V128H160V218.7zM384 448C410.9 448 439.4 437.2 461.4 421.9L461.5 421.9C473.4 413.4 489.5 414.1 500.7 423.6C515 435.5 533.2 444.6 551.3 448.8C568.5 452.8 579.2 470.1 575.2 487.3C571.2 504.5 553.1 515.2 536.7 511.2C512.2 505.4 491.9 494.6 478.5 486.2C449.5 501.7 417 512 384 512C352.1 512 323.4 502.1 303.6 493.1C297.7 490.5 292.5 487.8 288 485.4C283.5 487.8 278.3 490.5 272.4 493.1C252.6 502.1 223.9 512 192 512C158.1 512 126.5 501.7 97.5 486.2C84.12 494.6 63.79 505.4 39.27 511.2C22.06 515.2 4.853 504.5 .8422 487.3C-3.169 470.1 7.532 452.8 24.74 448.8C42.84 444.6 60.96 435.5 75.31 423.6C86.46 414.1 102.6 413.4 114.5 421.9L114.6 421.9C136.7 437.2 165.1 448 192 448C219.5 448 247 437.4 269.5 421.9C280.6 414 295.4 414 306.5 421.9C328.1 437.4 356.5 448 384 448H384z"/></svg>
